X: 283
T: The Lads of Ayr
R: reel
M: C
L: 1/8
Z: 2012 John Chambers <jc:trillian.mit.edu>
B: J. Anderson "Budget of Strathspeys, Reels and Country Dances" (Early 1800s) p.28 #3
F: http://imslp.org/wiki/Anderson%27s_Budget_of_Strathspeys,_Reels_and_Country_Dances_(Various)
N: There's a 4-dot begin-repeat at the first bar line that seems to conflict with the pickup notes.
K: C
f | edcA cGGf | ecce f2(fg) | edcA cGGc | AGce d2c :|
e | cega gede | c/c/c (ga) g2(ed) | cega gece | fage d2(d ||
e)| gcga gede | c/c/c (ga) g2(ed) | cega gece | faeg defa |]

%%sep 2 1 500
%%sep 1 1 500

